X:1
T:Epaphroditus, 11.11.11.11 D
T:Epaphroditus, 11.11.11.11 D
T:Philip Paul Bliss (1838-1876)
T:Public Domain Courtesy of the Cyber Hymnal™
C:Philip Paul Bliss (1838-1876)
Z:Public Domain
Z:Courtesy of the Cyber Hymnal™
%%score ( 1 2 ) ( 3 4 )
L:1/8
Q:1/4=95
M:9/8
K:A
V:1 treble 
V:2 treble 
V:3 bass 
V:4 bass 
V:1
 EEE E | [Ec]4 [Ec][Ec] [Ec][EB]A | [GB]3- [GB]2 E EEE [EB]4 [EB][EB][EB][EA][EG] | %3
 [EA]3- [EA]2 E E[EA][Ec] | [Ae]4 [Ec][Ec] [Ec][DB][CA] | [DF]3- [DF]2 [DF] [Fd][Fc][FB] | %6
 [EA]4 [EA][EA] [EB][EA][EG] | [EA]3- [EA]2 E EEE | [EA]4 [EA][EA] [EA][EG]A | [GB]3- [GB]2 E EEE | %10
 [EB]4 [EB][EB] [EB][EA][EB] | [Ec]3- [Ec]2 [CE] [CE][CA][Ec] | [Ae]4 [Ec][Ec] [Ec][DB][CA] | %13
 [DF]3- [DF]2 [DF] [Fd][Fc][FB] | [EA]4 [EA][EA] [EB][EA][EG] | [EA]3- [EA]2 |] %16
V:2
 EEE E | x8 A | x5 E EEE x9 | x5 E E x2 | x9 | x9 | x9 | x5 E EEE | x8 A | x5 E EEE | x9 | x9 | %12
 x9 | x9 | x9 | x5 |] %16
V:3
 E,E,E, E, | [A,,A,]4 [A,,A,][A,,C] [A,,E][A,,D][A,,C] | %2
 [E,E]3- [E,E]2 E, E,E,E, [E,D]4 [E,D][E,D][E,D][E,C][E,B,] | %3
 [A,,C]3- [A,,C]2 [A,,C] [A,,C][A,,C][A,,C] | [A,C]4 A,A, A,A,A, | %5
 [D,A,]3- [D,A,]2 [D,A,] [D,A,][D,A,][D,B,] | [E,C]4 [E,C][E,C] [E,D][E,C][E,B,] | %7
 [A,,C]3- [A,,C]2 z4 | [A,C][A,C][A,C] [A,C][A,C][A,C] [CE][B,D][A,C] | [E,E][E,E][E,E] [E,E]2 z4 | %10
 [E,G,][E,G,][E,G,] [E,G,][E,G,][E,G,] [E,G,][C,A,][E,G,] | A,A,A, A,2 z4 | %12
 [A,C][A,C][A,C] [A,C]A,A, A,A,A, | [D,A,][D,A,][D,A,] [D,A,]2 z3 [D,B,] | %14
 [E,C][E,C][E,C] [E,C][E,C][E,C] [E,D][E,C][E,B,] | [A,,C]3- [A,,C]2 |] %16
V:4
 E,E,E, E, | x9 | x5 E, E,E,E, x9 | x9 | x4 A,A, A,A,A, | x9 | x9 | x9 | x9 | x9 | x9 | %11
 A,A,A, A,2 x4 | x4 A,A, A,A,A, | x9 | x9 | x5 |] %16

